X: 3752
T: Bird's, The
R: hornpipe
M: 4/4
K: Gmajor
ce|:"C": g2ga gecG|cega g2eg|"FM7"azab ageg|ageg az"G"ba|
"Am7"gage d2ed|"C" cdeg "FM7"azag|"G"eged "Em7"cAdc|1 "Am7"AzGB ABce:|2 "Am7"A2GB Azed||
|:"Am7"cAAG "D7"AcBA|"Em7"GEDE "G"GzAB|"Am7"cAAG ABcd|"Em7" eg3 aged|
"Am7"cAAG "D7"AzBA|"Em7" GEDE "G"G2EG|"FM7"AzAc "G"BAGB|1 "Am7"A2GB A2ed:|2 "Am7"A2 GBA||

